X: 020
T: Cave of Enchantment
B: 204 Favourite Country Dances
N: Published by Straight & Skillern, London ca.1775
F: http://imslp.org/wiki/204_Favourite_Country_Dances_(Various) p.10 #20
Z: 2014 John Chambers <jc:trillian.mit.edu>
M: 2/4
L: 1/8
K: G
%  - - - - - - - - - - - - - - - - - - - - - - - - -
d |\
(BAG).d | (BAG).d | g>dg>d | ((3gdc) (3BAG |\
(BAG).d | (dcB).g | ((3fed) (3efe | d>dd :|
|: a |\
(fed).a | (fed).a | ((3fed) e>f | gd ((3BAG) |\
(BAG).d | ((3BcA) G>g | ((3efg) a>f | g3 :|
%  - - - - - - - - - - - - - - - - - - - - - - - - -
%%begintext align
%% The 1st Man cast off & turn the 3d Wo.
%% the 1st Wo. cast off & turn the 3d Man
%% hands 6 round right & left at top
%%endtext

%%sep 1 1 500
%%sep 1 1 500
